X: 5707
T: Cad E Sin Don Te Sin
R: waltz
M: 3/4
K: Gmajor
B2|"Em" E3 G"D" FD|"Em" E4 DE|"G" G3 A (3BAG|"D" A4 GA|"Em" B4 eB|"Am" c4 BA|"C" G E3 E2|"D" D4 B2|
"Em" E3 G"D" FD|"Em" E4 DE|"G" G3 A (3BAG|"D" A4 GA|"Em" B4 eB|"Am" c4 BA|"C" G E3 ED|"Em" E4||
B2|"Em" e4 (3fed|"Em" e4 fe|"G" d B3 ^c2|"D" d4 e2|"Em" B4 e2|B4 A2|"C" G E3 F2|"D" D4 B2|
"Em" E3 G"D" FD|"Em" E4 DE|"G" G3 A (3BAG|"D" A4 GA|"Em" B4 eB|"^An" c4 BA|"C" G E3 ED|"Em" E4||

